X: 122
T: Missa Sancta Dei genitrix / Kyrie
N: Derived from Rue1026a-Missa_Sancta_Dei_genitrix-Kyrie.krn
C: Pierre de la Rue
%%abc-version 2.0
%%abcx-abcm2ps-target-version 5.9.1 (29 Sep 2008)
%%abc-creator hum2abc beta
%%abcx-conversion-date 2019/02/17 08:01:14
%%abc-edited-by Jesse Rodin
%%abc-edited-by Jesse Rodin; Chris Gage 10-25-2012
%%abcx-initial-encoding-date 2012/11/12/
%%humdrum-veritas 2239016580
%%humdrum-veritas-data 1953691922
%%linebreak <none>
%%barnumbers 0
L: 1/4
M: 3/1
Q: 1/2=120
%%staves [1 2 3 4]
V: 1 clef=treble
V: 2 clef=treble-8
V: 3 clef=treble-8
V: 4 clef=bass
K: C
[V:1] z12 | 
[V:2] z12 | 
[V:3] z12 | 
[V:4] E,8F,4 | 
[V:1] z12 | 
[V:2] z4e8 | 
[V:3] z12 | 
[V:4] E,8C,4 | 
[V:1] z12 | 
[V:2] f4e8 | 
[V:3] z4z4e4- | 
[V:4] D,4E,4A,,2A,2- | 
[V:1] z12 | 
[V:2] c4d4e4 | 
[V:3] e4f4e4- | 
[V:4] A,2G,2F,3E,/D,/C,2C2- | 
[V:1] z4z4B4- | 
[V:2] A2e4f2g4 | 
[V:3] e4c4d4 | 
[V:4] CB,A,G,A,4G,4- | 
[V:1] B4c4B4- | 
[V:2] z2g4f2g3f | 
[V:3] e4A4z4 | 
[V:4] G,4z4G,4- | 
[V:1] B4G4A4 | 
[V:2] d4e8 | 
[V:3] B8c4 | 
[V:4] G,2F,2E,4A,,4 | 
[V:1] B4EFGAB2c2- | 
[V:2] e4g3fede2- | 
[V:3] B8G4 | 
[V:4] E,12 | 
[V:1] c2BAG4z2c2 | 
[V:2] e2d2e2g3fe2 | 
[V:3] A4B4E4 | 
[V:4] F,4E,6C,2 | 
[V:1] B2A4^G2A4- | 
[V:2] d2c2B4A2c2- | 
[V:3] z4e8 | 
[V:4] D,4E,4A,,4 | 
[V:1] A2GFA2G4c2- | 
[V:2] c2B2c4B2AB | 
[V:3] f4e8 | 
[V:4] D,4C,3D,E,2A,,2 | 
[V:1] c2BAB2A4^G2 | 
[V:2] cde2z2A2B2c2- | 
[V:3] c4d4e4 | 
[V:4] A,4G,2F,2E,4 | 
[V:1] A12- | 
[V:2] c2d2e2d2D4 | 
[V:3] A12- | 
[V:4] F,3E,C,2D,4C,B,, | 
[V:1] A12 ||  
[V:2] E12 ||  
[V:3] A12 ||  
[V:4] A,,12 ||  
[V:1]  [K:C] [K:clef=treble][M:2/1]B4c2B2- | 
[V:2]  [K:C] [K:clef=treble-8][M:2/1]z8 | 
[V:3]  [K:C] [K:clef=treble-8][M:2/1]z8 | 
[V:4]  [K:C] [K:clef=bass][M:2/1]z8 | 
[V:1] B2G2A2B2 | 
[V:2] e4f2e2- | 
[V:3] z8 | 
[V:4] z8 | 
[V:1] E4z4 | 
[V:2] e2c2d2e2 | 
[V:3] z8 | 
[V:4] A,4_B,2A,2- | 
[V:1] z2A2_B2A2- | 
[V:2] A4e4 | 
[V:3] z8 | 
[V:4] A,2F,2G,2A,2 | 
[V:1] A2F2G2A2 | 
[V:2] f4e2c2 | 
[V:3] z8 | 
[V:4] D,4z2A,2 | 
[V:1] D2A3GF2 | 
[V:2] d2e2A2d2- | 
[V:3] z8 | 
[V:4] _B,2A,2F,4 | 
[V:1] E4D2F2- | 
[V:2] d2^c2d4 | 
[V:3] z8 | 
[V:4] G,2A,2D,4- | 
[V:1] F2EDE2D2 | 
[V:2] z2B2c2B2- | 
[V:3] z8 | 
[V:4] D,4z4 | 
[V:1] G4C2G2- | 
[V:2] B2G2A2B2 | 
[V:3] z8 | 
[V:4] E,4F,2E,2- | 
[V:1] G2E2F2G2 | 
[V:2] E2A4^G2 | 
[V:3] z8 | 
[V:4] E,2C,2D,2E,2 | 
[V:1] C2c3BA2- | 
[V:2] A3Bc2d2 | 
[V:3] z8 | 
[V:4] A,,4z4 | 
[V:1] A2G2A2G2- | 
[V:2] B2c3de2- | 
[V:3] z8 | 
[V:4] E,4F,2E,2 | 
[V:1] G2FED2G2 | 
[V:2] e2dcB4 | 
[V:3] z8 | 
[V:4] C,4D,2E,2 | 
[V:1] F2E2B4 | 
[V:2] c4B2G2 | 
[V:3] z8 | 
[V:4] A,,4z4 | 
[V:1] c2B4G2 | 
[V:2] A2B2E2B2 | 
[V:3] z8 | 
[V:4] z4E,4 | 
[V:1] A2B2E4 | 
[V:2] A2G3EA2- | 
[V:3] z8 | 
[V:4] F,2E,4C,2 | 
[V:1] B4c2BG | 
[V:2] A2^G2A2=Gc- | 
[V:3] z8 | 
[V:4] D,2E,2A,,2E,2 | 
[V:1] A2B2E2A2- | 
[V:2] cB/A/G2c4 | 
[V:3] z8 | 
[V:4] F,2E,4C,2 | 
[V:1] A2^G2A8 ||  
[V:2] B4A8 ||  
[V:3] z12 ||  
[V:4] D,2E,2A,,8 ||  
[V:1]  [K:C] [K:clef=treble][M:3/1]B4c2B4G2 | 
[V:2]  [K:C] [K:clef=treble-8][M:3/1]z4z4e4 | 
[V:3]  [K:C] [K:clef=treble-8][M:3/1]z12 | 
[V:4]  [K:C] [K:clef=bass][M:3/1]z12 | 
[V:1] A2B2E2A4GF | 
[V:2] f2e4c2d4 | 
[V:3] z12 | 
[V:4] z12 | 
[V:1] G4E3FG2A2- | 
[V:2] e3fg4e4- | 
[V:3] B12- | 
[V:4] E,12- | 
[V:1] A2^G2A4z2A2- | 
[V:2] e8z4 | 
[V:3] B4c8 | 
[V:4] E,4A,,8 | 
[V:1] A2GFG6A2 | 
[V:2] e6f2g4- | 
[V:3] B12 | 
[V:4] E,12- | 
[V:1] B2c4B2A4 | 
[V:2] g2c2c4d4 | 
[V:3] G4A8 | 
[V:4] E,4F,8 | 
[V:1] G6A2B4- | 
[V:2] e8d4 | 
[V:3] B12 | 
[V:4] E,6F,2G,4- | 
[V:1] B2c3BGAB4 | 
[V:2] g6e3dB2 | 
[V:3] E12- | 
[V:4] G,2C,2C,4z4 | 
[V:1] c2B3AA4^G2 | 
[V:2] e4d2c2B4 | 
[V:3] E12 | 
[V:4] z12 | 
[V:1] A4z4z4 | 
[V:2] A3Bcdc4B2 | 
[V:3] e8f4 | 
[V:4] z2A,,3B,,C,A,,D,4 | 
[V:1] z2G2A2G4E2 | 
[V:2] c4c3BG2A2 | 
[V:3] e8c4 | 
[V:4] C,8C,4 | 
[V:1] F2G2C2c2B2c2- | 
[V:2] D4z4z4 | 
[V:3] d4e8 | 
[V:4] _B,,4A,,2A,2G,2A,2- | 
[V:1] c2BAG2FE2DD2- | 
[V:2] z4z4A4 | 
[V:3] A4_B2A4F2 | 
[V:4] A,2G,F,E,2A,,2D,4 | 
[V:1] D2^C2D4z4 | 
[V:2] _B2A4F2G2A2 | 
[V:3] G2A2D8 | 
[V:4] z4A,4_B,2A,2- | 
[V:1]  [K:C] A4_B2A4F2 | 
[V:2]  [K:C] D2d4c2d2A2 | 
[V:3]  [K:C] z4z4d4 | 
[V:4]  [K:C] A,2F,2G,2A,2D,4 | 
[V:1] G2A2D2E4D2 | 
[V:2] B2A2B2G2A4 | 
[V:3] e2d4B2c2d2 | 
[V:4] G,2F,2G,4F,4 | 
[V:1] E12 |]  
[V:2] B12 |]  
[V:3] G12 |]  
[V:4] E,12 |]  



